public/assets/images/icon.svg

<svg width="16" height="16" viewBox="0 0 16 16" fill="none" xmlns="http://www.w3.org/2000/svg">
<path fill-rule="evenodd" clip-rule="evenodd" d="M4.02663 8L1.33333 6.41597L3.31846 2.91739L6.01333 4.4987L6.01487 1.33333H9.98513L9.98667 4.4987L12.6815 2.91739L14.6667 6.41597L11.9733 8L14.6667 9.58403L12.6815 13.0826L9.98667 11.5013L9.98513 14.6667H6.01487L6.01333 11.5013L3.31846 13.0826L1.33333 9.58403L4.02663 8Z" fill="#007AFF"/>
</svg>

<svg xmlns="http://www.w3.org/2000/svg" width="16" height="16" fill="none" viewBox="0 0 16 16"><path fill="#007aff" fill-rule="evenodd" d="M4.027 8 1.333 6.416l1.985-3.499L6.013 4.5l.002-3.166h3.97L9.987 4.5l2.694-1.582 1.986 3.499L11.973 8l2.694 1.584-1.985 3.499L9.987 11.5l-.002 3.166h-3.97L6.013 11.5l-2.695 1.582-1.985-3.499z" clip-rule="evenodd"/></svg>
